X: 1
T: Bell's Favorite
S:Don Messer's Way Down East Fiddlin' Tunes, via Phil Rowe
M:6/8
K:D
   G | "D"FEF "G"GFG |  "D"BAF A2d | "A7"cde ABc |1,3 "D"dcB "A7"A2 :|2,4 "D"d3 d2 :|
|: f | "D"aba    fef | "Em"gfg e2d | "A7"cde ABc |1,3 "D"dcB "A7"A2 :|2,4 "D"d3 d2 :|
%%sep 1 1 500
